images/star-colored.svg

<svg width="19" height="19" fill="none" xmlns="http://www.w3.org/2000/svg"><path d="M18.2961 6.58663c-.0577-.16981-.1638-.31902-.3053-.42921-.1415-.11019-.3121-.17653-.4909-.19084l-5.2291-.41551L10.008.542056C9.9359.380725 9.81869.243699 9.67047.147514 9.52225.0513295 9.34936.00009712 9.17266 1.4e-7 8.99597-.00009684 8.82302.0509458 8.6747.146968c-.14833.096022-.26569.232919-.33793.39417L6.07395 5.55107l-5.229153.41551c-.175692.01392-.343653.07816-.483791.18503-.140138.10688-.246518.25187-.3064128.41762-.05989516.16575-.0707695.34525-.0313219.51702.0394477.17177.1275467.32854.2537577.45155l3.864311 3.7671-1.36668 5.918c-.0415.1791-.0282.3666.03817.5381.06637.1714.18276.319.33404.4235.15129.1046.3305.1612.51437.1626.18387.0014.36392-.0525.51679-.1547l4.99434-3.3296 4.99433 3.3296c.1562.1037.3405.1571.528.153.1875-.0041.3692-.0655.5208-.176.1515-.1105.2656-.2647.3268-.442.0613-.1772.0668-.369.0158-.5495l-1.6776-5.8703 4.1606-3.74412c.2724-.24582.3724-.62922.255-.97685z" fill="#F3CD03"/></svg>

<svg width="19" height="19" viewBox="0 0 19 19" fill="none" xmlns="http://www.w3.org/2000/svg">
<path d="M18.2961 6.58663C18.2384 6.41682 18.1323 6.26761 17.9908 6.15742C17.8493 6.04723 17.6787 5.98089 17.4999 5.96658L12.2708 5.55107L10.008 0.542056C9.9359 0.380725 9.81869 0.243699 9.67047 0.147514C9.52225 0.0513295 9.34936 9.71158e-05 9.17266 1.37932e-07C8.99597 -9.684e-05 8.82302 0.0509458 8.6747 0.146968C8.52637 0.24299 8.40901 0.379887 8.33677 0.541138L6.07395 5.55107L0.844797 5.96658C0.669105 5.9805 0.501144 6.04474 0.361006 6.15161C0.220868 6.25849 0.114488 6.40348 0.0545932 6.56923C-0.00530196 6.73498 -0.0161763 6.91448 0.0232713 7.08625C0.062719 7.25802 0.150818 7.41479 0.277029 7.5378L4.14134 11.3049L2.77466 17.2229C2.73316 17.402 2.74646 17.5895 2.81283 17.761C2.8792 17.9324 2.99559 18.08 3.14687 18.1845C3.29816 18.2891 3.47737 18.3457 3.66124 18.3471C3.84511 18.3485 4.02516 18.2946 4.17803 18.1924L9.17237 14.8628L14.1667 18.1924C14.3229 18.2961 14.5072 18.3495 14.6947 18.3454C14.8822 18.3413 15.0639 18.2799 15.2155 18.1694C15.367 18.0589 15.4811 17.9047 15.5423 17.7274C15.6036 17.5502 15.6091 17.3584 15.5581 17.1779L13.8805 11.3076L18.0411 7.56348C18.3135 7.31766 18.4135 6.93426 18.2961 6.58663Z" fill="#F3CD03"/>
</svg>
